storage/app/icons/phosphoricons/bold/car-bold.svg

<svg xmlns="http://www.w3.org/2000/svg" fill="currentColor" viewBox="0 0 256 256"><path d="M240 100h-8.2l-26.72-60.12A20 20 0 0 0 186.8 28H69.2a20 20 0 0 0-18.28 11.88L24.2 100H16a12 12 0 0 0 0 24h4v76a20 20 0 0 0 20 20h28a20 20 0 0 0 20-20v-20h80v20a20 20 0 0 0 20 20h28a20 20 0 0 0 20-20v-76h4a12 12 0 0 0 0-24M71.8 52h112.4l21.33 48H50.47ZM64 196H44v-16h20Zm128 0v-16h20v16Zm20-40H44v-32h168Z"/></svg>

<svg xmlns="http://www.w3.org/2000/svg" viewBox="0 0 256 256" fill="currentColor"><path d="M240,100h-8.2L205.08,39.88A20,20,0,0,0,186.8,28H69.2A20,20,0,0,0,50.92,39.88L24.2,100H16a12,12,0,0,0,0,24h4v76a20,20,0,0,0,20,20H68a20,20,0,0,0,20-20V180h80v20a20,20,0,0,0,20,20h28a20,20,0,0,0,20-20V124h4a12,12,0,0,0,0-24ZM71.8,52H184.2l21.33,48H50.47ZM64,196H44V180H64Zm128,0V180h20v16Zm20-40H44V124H212Z"/></svg>
